lib/icons/star.svg

<svg width="16" height="16" viewBox="0 0 16 16" fill="none" xmlns="http://www.w3.org/2000/svg">
<path fill-rule="evenodd" clip-rule="evenodd" d="M9.60433 4.48332L8.10691 1.07226C8.09064 1.03521 8.07413 1.02271 8.06421 1.01653C8.05009 1.00774 8.02793 1 8 1C7.97207 1 7.94991 1.00774 7.93579 1.01653C7.92587 1.02271 7.90936 1.03521 7.89309 1.07226L6.39567 4.48332C6.09718 5.16328 5.46486 5.63977 4.72594 5.73451L1.10505 6.19876C1.07104 6.20312 1.05534 6.21355 1.04547 6.22206C1.03226 6.23344 1.01736 6.25317 1.00802 6.28117C0.998691 6.30917 0.998433 6.33495 1.00255 6.3539C1.00576 6.36867 1.0131 6.38843 1.03898 6.41388L3.78411 9.11349C4.28867 9.60968 4.51245 10.3245 4.38376 11.0191L3.67427 14.8484C3.66698 14.8878 3.67321 14.909 3.67885 14.9221C3.68633 14.9395 3.7012 14.9596 3.72449 14.976C3.74777 14.9925 3.77018 14.9988 3.78585 14.9998C3.79671 15.0005 3.81533 15.0001 3.84716 14.9814L6.92832 13.1679C7.59004 12.7784 8.40996 12.7784 9.07168 13.1679L12.1528 14.9814C12.1847 15.0001 12.2033 15.0005 12.2141 14.9998C12.2298 14.9988 12.2522 14.9925 12.2755 14.976C12.2988 14.9596 12.3137 14.9395 12.3211 14.9221C12.3268 14.909 12.333 14.8878 12.3257 14.8484L11.6162 11.0191C11.4875 10.3245 11.7113 9.60968 12.2159 9.11349L14.961 6.41388C14.9869 6.38843 14.9942 6.36867 14.9974 6.3539C15.0016 6.33496 15.0013 6.30917 14.992 6.28117C14.9826 6.25317 14.9677 6.23344 14.9545 6.22206C14.9447 6.21355 14.929 6.20312 14.8949 6.19876L11.2741 5.73451C10.5351 5.63977 9.90282 5.16328 9.60433 4.48332ZM9.02257 0.670299C8.63023 -0.223434 7.36977 -0.223432 6.97743 0.670301L5.48002 4.08135C5.32173 4.44192 4.98739 4.6928 4.59876 4.74263L0.977878 5.20688C0.0504746 5.32579 -0.330767 6.46939 0.33781 7.12688L3.08294 9.82648C3.34975 10.0889 3.46886 10.4679 3.40049 10.8369L2.691 14.6663C2.51551 15.6135 3.52777 16.3297 4.35439 15.8432L7.43555 14.0297C7.78421 13.8245 8.21579 13.8245 8.56445 14.0297L11.6456 15.8432C12.4722 16.3297 13.4845 15.6135 13.309 14.6663L12.5995 10.8369C12.5311 10.4679 12.6503 10.0889 12.9171 9.82648L15.6622 7.12688C16.3308 6.46939 15.9495 5.32579 15.0221 5.20688L11.4012 4.74263C11.0126 4.6928 10.6783 4.44192 10.52 4.08135L9.02257 0.670299Z" fill="#7A859E"/>
</svg>

<svg width="16" height="16" fill="none" xmlns="http://www.w3.org/2000/svg"><path fill-rule="evenodd" clip-rule="evenodd" d="m9.604 4.483-1.497-3.41c-.016-.038-.033-.05-.043-.056A.123.123 0 0 0 8 1a.123.123 0 0 0-.064.017c-.01.006-.027.018-.043.055L6.396 4.483a2.119 2.119 0 0 1-1.67 1.252l-3.62.464a.104.104 0 0 0-.06.023.134.134 0 0 0-.038.06.14.14 0 0 0-.005.072c.003.015.01.034.036.06l2.745 2.7a2.13 2.13 0 0 1 .6 1.905l-.71 3.83a.12.12 0 0 0 .005.073.132.132 0 0 0 .045.054.123.123 0 0 0 .062.024c.01 0 .03 0 .061-.019l3.081-1.813a2.112 2.112 0 0 1 2.144 0l3.08 1.813c.033.02.051.02.062.019a.123.123 0 0 0 .061-.024.131.131 0 0 0 .046-.054.12.12 0 0 0 .005-.074l-.71-3.829a2.129 2.129 0 0 1 .6-1.906l2.745-2.7a.115.115 0 0 0 .036-.06.14.14 0 0 0-.005-.072.135.135 0 0 0-.038-.059.103.103 0 0 0-.06-.023l-3.62-.464a2.119 2.119 0 0 1-1.67-1.252ZM9.023.67C8.63-.223 7.37-.223 6.977.67L5.48 4.081c-.158.36-.493.612-.881.662l-3.621.464c-.928.119-1.309 1.262-.64 1.92l2.745 2.7c.267.262.386.64.317 1.01l-.709 3.83c-.175.947.837 1.663 1.663 1.176l3.082-1.813c.348-.205.78-.205 1.128 0l3.082 1.813c.826.487 1.838-.23 1.663-1.177l-.71-3.83a1.13 1.13 0 0 1 .318-1.01l2.745-2.7c.669-.657.287-1.8-.64-1.92l-3.62-.463c-.39-.05-.724-.301-.882-.662L9.023.671Z" fill="#7A859E"/></svg>
